X:59
T:Gander's Strut (h)
B:NFID.246a
K:
059gand_s
S:PT
L:1/8
M:C
R:hornpipe
Q:300
K:G
BAGE D2D2|BAB^c d2d2|cBAG E2E2|D2EF G2G2:|
Bdef gfed|Bd (3efg a2a2|Bdef gfed|BGAF G2G2:|

%%%

